src/cube.svg

<svg width="110" height="110" viewBox="0 0 110 110" fill="none" xmlns="http://www.w3.org/2000/svg">
<g filter="url(#filter0_f_319_445)">
<circle cx="54.6667" cy="54.6667" r="34.6667" fill="url(#paint0_radial_319_445)" fill-opacity="0.1"/>
</g>
<path d="M40.884 30.3289C43.4733 29.4278 47.5483 30.4578 51.5281 32.4475C53.7121 33.5393 56.7795 34.7525 59.5102 36.5895C58.2031 36.8924 56.7016 37.265 54.9381 37.703C49.0103 39.1751 45.3798 40.3938 43.1754 41.7658C37.3385 45.3987 36.7932 49.6873 36.4769 54.1934C36.2984 56.7374 36.703 59.4525 38.1369 65.1813C33.8954 62.6501 29.2482 59.3968 27.6511 56.7847C25.8278 53.8019 28.1787 46.2961 30.4616 41.7658C32.7446 37.2355 37.3485 30.7809 40.884 30.3289Z" fill="white"/>
<path fill-rule="evenodd" clip-rule="evenodd" d="M68.6297 40.9965C72.052 40.9091 73.1679 41.7382 75.0325 42.8144C77.4057 44.1839 78.4478 47.138 79.3015 48.6773C80.1553 50.2164 81.4628 53.722 82.2902 58.9186C82.8337 62.3322 83.5704 65.3196 82.2898 69.5866C81.803 71.2084 80.155 73.8535 75.033 75.9869C69.4973 78.2926 63.5075 79.4 58.3851 79.4C53.2627 79.4 51.8728 78.5855 49.8475 77.267C47.0661 75.456 45.4188 72.7006 44.7063 69.8545C43.4751 64.9362 41.3206 56.3289 43.1754 50.6439C44.7986 45.6696 51.3567 44.0403 56.2947 42.814C58.8645 42.1758 64.9158 41.0914 68.6297 40.9965ZM63.8212 62.7281C61.7342 61.8026 59.2893 62.7373 58.3601 64.8161C57.4309 66.8948 58.3696 69.3303 60.4566 70.2558C62.5435 71.1812 64.9884 70.2464 65.9177 68.1678C66.8469 66.0891 65.9083 63.6536 63.8212 62.7281ZM52.723 54.1934C50.636 53.2679 48.1907 54.2034 47.2615 56.2822C46.3325 58.3609 47.2711 60.7964 49.358 61.7219C51.445 62.6473 53.8903 61.7119 54.8195 59.6331C55.7485 57.5545 54.8099 55.1189 52.723 54.1934ZM77.7669 52.76C76.7016 52.1085 75.8806 53.2024 75.933 55.2034C75.9854 57.2043 76.8909 59.3549 77.9562 60.0066C79.0215 60.6581 79.8428 59.5634 79.7904 57.5624C79.7379 55.5616 78.8321 53.4116 77.7669 52.76Z" fill="white"/>
<defs>
<filter id="filter0_f_319_445" x="0" y="0" width="109.333" height="109.333" filterUnits="userSpaceOnUse" color-interpolation-filters="sRGB">
<feFlood flood-opacity="0" result="BackgroundImageFix"/>
<feBlend mode="normal" in="SourceGraphic" in2="BackgroundImageFix" result="shape"/>
<feGaussianBlur stdDeviation="10" result="effect1_foregroundBlur_319_445"/>
</filter>
<radialGradient id="paint0_radial_319_445" cx="0" cy="0" r="1" gradientUnits="userSpaceOnUse" gradientTransform="translate(54.6667 54.6667) rotate(90) scale(34.6667)">
<stop stop-color="#313131"/>
<stop offset="1" stop-color="#979797"/>
</radialGradient>
</defs>
</svg>

<svg xmlns="http://www.w3.org/2000/svg" width="110" height="110" fill="none"><g filter="url(#a)"><circle cx="54.667" cy="54.667" r="34.667" fill="url(#b)" fill-opacity=".1"/></g><path fill="#fff" d="M40.884 30.329c2.59-.901 6.664.129 10.644 2.118 2.184 1.092 5.252 2.305 7.982 4.142-1.307.303-2.808.676-4.572 1.114-5.928 1.472-9.558 2.69-11.763 4.063-5.836 3.633-6.382 7.921-6.698 12.427-.179 2.544.226 5.26 1.66 10.988-4.242-2.53-8.889-5.784-10.486-8.396-1.823-2.983.528-10.489 2.81-15.02 2.284-4.53 6.888-10.984 10.423-11.436Z"/><path fill="#fff" fill-rule="evenodd" d="M68.63 40.996c3.422-.087 4.538.742 6.403 1.818 2.373 1.37 3.415 4.324 4.269 5.863.853 1.54 2.16 5.045 2.988 10.242.544 3.413 1.28 6.4 0 10.668-.487 1.621-2.135 4.266-7.257 6.4-5.536 2.306-11.526 3.413-16.648 3.413s-6.512-.815-8.538-2.133c-2.78-1.811-4.428-4.566-5.14-7.412-1.232-4.919-3.386-13.526-1.532-19.211 1.624-4.974 8.182-6.604 13.12-7.83 2.57-.638 8.62-1.723 12.335-1.818ZM63.82 62.728a4.143 4.143 0 0 0-5.46 2.088 4.114 4.114 0 0 0 2.096 5.44 4.143 4.143 0 0 0 5.46-2.088 4.114 4.114 0 0 0-2.096-5.44Zm-11.098-8.535a4.143 4.143 0 0 0-5.462 2.09 4.114 4.114 0 0 0 2.097 5.439 4.144 4.144 0 0 0 5.462-2.089 4.114 4.114 0 0 0-2.097-5.44Zm25.044-1.433c-1.065-.651-1.886.442-1.834 2.443.052 2.001.958 4.152 2.023 4.804 1.066.651 1.887-.444 1.834-2.445-.052-2-.958-4.15-2.023-4.802Z" clip-rule="evenodd"/><defs><radialGradient id="b" cx="0" cy="0" r="1" gradientTransform="rotate(90 0 54.667) scale(34.6667)" gradientUnits="userSpaceOnUse"><stop stop-color="#313131"/><stop offset="1" stop-color="#979797"/></radialGradient><filter id="a" width="109.333" height="109.333" x="0" y="0" color-interpolation-filters="sRGB" filterUnits="userSpaceOnUse"><feFlood flood-opacity="0" result="BackgroundImageFix"/><feBlend in="SourceGraphic" in2="BackgroundImageFix" result="shape"/><feGaussianBlur result="effect1_foregroundBlur_319_445" stdDeviation="10"/></filter></defs></svg>
